X:2268
T:Oikan ayns Bethleham 
T:(Er Ean Bashtey) 
C:Caley, Sulby 
C:Traditional
O:Isle of Man
Z:Clague collection
B:Kiaull Vannin #268 
L:1/4
M:3/4 
Q:50 
K:C 
A|A2A | e2e|edc | B2B|c2c | dcd|!fermata!e3 E|A2B | cBA|dcd | e2e|edc | BcB|A2|| 

